images/ic_token_imkr.svg

<svg height="250" viewBox="0 0 250 250" width="250" xmlns="http://www.w3.org/2000/svg"><path d="m125 0c69.035156 0 125 55.964844 125 125s-55.964844 125-125 125-125-55.964844-125-125 55.964844-125 125-125zm0 0" fill="#1bbc9a"/><g fill="#fff"><path d="m60.789062 80.160156c1.027344-.515625 2.261719-.40625 3.183594.28125l53.144532 39.917969c.761718.574219 1.21875 1.472656 1.226562 2.429687v45.648438c-.003906 1.679688-1.363281 3.039062-3.042969 3.042969-1.679687-.003907-3.039062-1.363281-3.042969-3.042969v-44.113281l-47.0625-35.367188v79.484375c-.003906 1.679688-1.363281 3.039063-3.042968 3.042969-.804688.007813-1.578125-.308594-2.152344-.875-.570312-.566406-.890625-1.339844-.890625-2.144531v-85.59375c0-1.148438.648437-2.199219 1.679687-2.710938zm0 0"/><path d="m190.25 80.160156c1.027344.515625 1.675781 1.5625 1.675781 2.710938v85.589844c-.058593 1.636718-1.402343 2.933593-3.042969 2.933593-1.636718 0-2.980468-1.296875-3.039062-2.933593v-79.507813l-47.042969 35.371094v44.140625c-.058593 1.636718-1.402343 2.933594-3.042969 2.933594-1.636718 0-2.980468-1.296876-3.039062-2.933594v-45.652344c-.003906-.960938.449219-1.863281 1.226562-2.429688l53.097657-39.941406c.929687-.6875 2.171875-.796875 3.207031-.28125zm0 0"/></g></svg>

<svg xmlns="http://www.w3.org/2000/svg" xmlns:xlink="http://www.w3.org/1999/xlink" width="250px" height="250px" viewBox="0 0 250 250" version="1.1">
<g id="surface1">
<path style=" stroke:none;fill-rule:nonzero;fill:rgb(10.588235%,73.725492%,60.392159%);fill-opacity:1;" d="M 125 0 C 194.035156 0 250 55.964844 250 125 C 250 194.035156 194.035156 250 125 250 C 55.964844 250 0 194.035156 0 125 C 0 55.964844 55.964844 0 125 0 Z M 125 0 "/>
<path style=" stroke:none;fill-rule:nonzero;fill:rgb(100%,100%,100%);fill-opacity:1;" d="M 60.789062 80.160156 C 61.816406 79.644531 63.050781 79.753906 63.972656 80.441406 L 117.117188 120.359375 C 117.878906 120.933594 118.335938 121.832031 118.34375 122.789062 L 118.34375 168.4375 C 118.339844 170.117188 116.980469 171.476562 115.300781 171.480469 C 113.621094 171.476562 112.261719 170.117188 112.257812 168.4375 L 112.257812 124.324219 L 65.195312 88.957031 L 65.195312 168.441406 C 65.191406 170.121094 63.832031 171.480469 62.152344 171.484375 C 61.347656 171.492188 60.574219 171.175781 60 170.609375 C 59.429688 170.042969 59.109375 169.269531 59.109375 168.464844 L 59.109375 82.871094 C 59.109375 81.722656 59.757812 80.671875 60.789062 80.160156 Z M 60.789062 80.160156 "/>
<path style=" stroke:none;fill-rule:nonzero;fill:rgb(100%,100%,100%);fill-opacity:1;" d="M 190.25 80.160156 C 191.277344 80.675781 191.925781 81.722656 191.925781 82.871094 L 191.925781 168.460938 C 191.867188 170.097656 190.523438 171.394531 188.882812 171.394531 C 187.246094 171.394531 185.902344 170.097656 185.84375 168.460938 L 185.84375 88.953125 L 138.800781 124.324219 L 138.800781 168.464844 C 138.742188 170.101562 137.398438 171.398438 135.757812 171.398438 C 134.121094 171.398438 132.777344 170.101562 132.71875 168.464844 L 132.71875 122.8125 C 132.714844 121.851562 133.167969 120.949219 133.945312 120.382812 L 187.042969 80.441406 C 187.972656 79.753906 189.214844 79.644531 190.25 80.160156 Z M 190.25 80.160156 "/>
</g>
</svg>
